X: 1
T:The 51st Highland Division at Wadi Akarit
M:C|
L:1/8
Q:80
C:W. MacDonald
S:March
K:HP
|: e2|
{g}fa{Gdc}d3/2c/2|
{g}B{Gdc}d{g}A3/2{d}B/2|  !
{g}A{Gdc}d{g}fa|
{fg}f2{g}ea3/4g/4|
{a}fa{Gdc}d3/2c/2|  !
{g}B{Gdc}d{g}A3/2{d}B/2|
{g}A{d}c{gf}gc|
{gef}e2{Gdc}d|1 a3/4g/4:| |:  !
{g}c3/4B/4|
{g}A{Gdc}d{gdc}df|
{ag}a3/2A/2{gcd}ce|  !
{gf}g3/2e/2{gcd}c{e}A|
{gf}g3/2e/2{gcd}ce|
{g}A{Gdc}d{gdc}df|  !
{ag}a3/2A/2{gcd}ce|
{g}A{d}c{gf}gc|
{gef}e2{Gdc}d:| |:  !
{g}f3/4g/4|
{ag}a3/2g/2{fg}fd|
{gf}g3/2e/2{gcd}c{e}A|  !
{gf}g3/2e/2{gcd}ce|
{gef}e3/2d/2{gcd}c{e}A|
{ag}a3/2g/2{fg}fd|  !
{gf}g3/2e/2{gcd}ce|
{g}A{d}c{gf}gc|
{gef}e2{Gdc}d:| |:  !
{g}c3/4B/4|
{g}A{Gdc}d{g}d3/4c/4{g}d3/4f/4|
{g}A{Gdc}d{g}f{ag}a|  !
A{d}c{g}c/4e3/4{g}c/4e3/4|
{g}A{d}c{gef}ef|
{g}A{Gdc}d{g}d3/4c/4{g}d3/4f/4|  !
{g}A{Gdc}d{g}f{ag}a|
A{d}c{gf}gc|
{gef}e2{Gdc}d:|  !
